icons/label-help-outline.svg

<svg xmlns="http://www.w3.org/2000/svg" width="24" height="24" viewBox="0 0 24 24">
  <path d="M14.1715729,4 C14.9672223,4 15.7302841,4.31607052 16.2928932,4.87867966 L16.2928932,4.87867966 L21.2928932,9.87867966 C22.4644661,11.0502525 22.4644661,12.9497475 21.2928932,14.1213203 L21.2928932,14.1213203 L16.2928932,19.1213203 C15.7302841,19.6839295 14.9672223,20 14.1715729,20 L14.1715729,20 L5,20 C3.34314575,20 2,18.6568542 2,17 L2,17 L2,7 C2,5.34314575 3.34314575,4 5,4 L5,4 Z M14.1715729,6 L5,6 C4.44771525,6 4,6.44771525 4,7 L4,7 L4,17 C4,17.5522847 4.44771525,18 5,18 L5,18 L14.1715729,18 C14.4367894,18 14.6911433,17.8946432 14.8786797,17.7071068 L14.8786797,17.7071068 L19.8786797,12.7071068 C20.2692039,12.3165825 20.2692039,11.6834175 19.8786797,11.2928932 L19.8786797,11.2928932 L14.8786797,6.29289322 C14.6911433,6.10535684 14.4367894,6 14.1715729,6 L14.1715729,6 Z M10.0001686,14 C10.5524586,14 11.0001686,14.4477 11.0001686,15 C11.0001686,15.5523 10.5524586,16 10.0001686,16 C9.44788858,16 9.00016858,15.5523 9.00016858,15 C9.00016858,14.4477 9.44788858,14 10.0001686,14 Z M10.0001686,8 C10.5537486,8 11.1555886,8.16344 11.6376686,8.525 C12.1397686,8.90158 12.5001686,9.48991 12.5001686,10.25 C12.5001686,10.69838 12.3847686,11.07994 12.1710686,11.4004 C11.9664386,11.70737 11.7009186,11.91339 11.4787086,12.06154 C11.3700286,12.134 11.2594286,12.20036 11.1657686,12.25656 L11.1657686,12.25656 C11.0591686,12.32052 10.9769786,12.37001 10.9005986,12.42093 C10.7478286,12.52279 10.6695886,12.59803 10.6242286,12.66609 C10.3944886,13.01075 9.92883858,13.10391 9.58417858,12.87417 C9.23951858,12.64442 9.14635858,12.17878 9.37609858,11.83412 C9.58073858,11.52712 9.84624858,11.32107 10.0684786,11.1729 C10.1772086,11.10041 10.2878586,11.03402 10.3815586,10.9778 L10.3815586,10.9778 C10.4880486,10.9139 10.5702386,10.86441 10.6466286,10.81349 C10.7994086,10.71162 10.8776486,10.63639 10.9229986,10.56835 C10.9593586,10.51381 11.0001686,10.42662 11.0001686,10.25 C11.0001686,10.01009 10.9022286,9.84842 10.7376686,9.725 C10.5530786,9.58656 10.2799186,9.5 10.0001686,9.5 C9.63140858,9.5 9.40469858,9.59004 9.25993858,9.68654 C9.11048858,9.78617 9.00149858,9.92438 8.92098858,10.08541 C8.73574858,10.45589 8.28523858,10.60606 7.91475858,10.42082 C7.54426858,10.23558 7.39409858,9.78507 7.57934858,9.41459 C7.74882858,9.07562 8.01483858,8.71383 8.42788858,8.43846 C8.84563858,8.15996 9.36892858,8 10.0001686,8 Z"/>
</svg>

<svg xmlns="http://www.w3.org/2000/svg" viewBox="0 0 24 24">
  <path d="M14.17 4a3 3 0 0 1 2.12.88l5 5a3 3 0 0 1 0 4.24l-5 5a3 3 0 0 1-2.12.88H5a3 3 0 0 1-3-3V7a3 3 0 0 1 3-3zm0 2H5a1 1 0 0 0-1 1v10a1 1 0 0 0 1 1h9.17a1 1 0 0 0 .7-.3l5-5a1 1 0 0 0 0-1.4l-5-5a1 1 0 0 0-.7-.3zM10 14a1 1 0 1 1 0 2 1 1 0 0 1 0-2zm0-6c.55 0 1.16.16 1.64.53.5.37.86.96.86 1.72a2.03 2.03 0 0 1-1.02 1.81l-.31.2-.27.16a.96.96 0 0 0-.28.25.75.75 0 0 1-1.24-.84c.2-.3.47-.5.69-.66l.31-.2c.1-.06.19-.1.27-.16.15-.1.23-.17.27-.24a.54.54 0 0 0 .08-.32c0-.24-.1-.4-.26-.53A1.26 1.26 0 0 0 10 9.5c-.37 0-.6.09-.74.19a1 1 0 0 0-.34.4.75.75 0 0 1-1.34-.68c.17-.33.43-.7.85-.97C8.85 8.16 9.37 8 10 8z"/>
</svg>
